Default.style/restaurant.svg

<svg width="22" height="32" xmlns="http://www.w3.org/2000/svg"><path d="M22 28.984c0 1.998-1 2.998-3.062 3.015-1.659.015-2.938-1.017-2.938-3.015l3-10.994c-6.314-.016-3-10.994-1-14.992C19.264.469 22 0 22 0l-.064 14.009L22 28.984ZM10 9.996c0 2.343-3 2.999-3.563 4.998L8 28.984c0 3-1.494 3.017-3.063 3.017-1.657 0-2.938-.017-2.938-3.017l1.469-13.991C3 12.994 0 12.338 0 9.996V1a1 1 0 0 1 2 0l.003 7.012A1 1 0 0 0 4 7.995V1a1 1 0 1 1 2 0v6.996c.009.545.453 1 1 1a1 1 0 0 0 1-1V1a1 1 0 1 1 2 0v8.996Z" fill="#888" fill-rule="evenodd"/></svg>

<?xml version="1.0" encoding="UTF-8" standalone="no"?>
<svg width="22px" height="32px" viewBox="0 0 22 32" version="1.1" xmlns="http://www.w3.org/2000/svg" xmlns:xlink="http://www.w3.org/1999/xlink" xmlns:sketch="http://www.bohemiancoding.com/sketch/ns">
    <!-- Generator: Sketch 3.2.2 (9983) - http://www.bohemiancoding.com/sketch -->
    <title>restaurant</title>
    <desc>Created with Sketch.</desc>
    <defs></defs>
    <g id="p" stroke="none" stroke-width="1" fill="none" fill-rule="evenodd" sketch:type="MSPage">
        <g id="restaurant" sketch:type="MSLayerGroup" fill="#888888">
            <path d="M22,28.984 C22,30.982 21,31.982 18.938,31.999 C17.279,32.014 16,30.982 16,28.984 L19,17.99 C12.686,17.974 16,6.996 18,2.998 C19.264,0.469 22,0 22,0 L21.936,14.009 L22,28.984 L22,28.984 Z M10,9.996 C10,12.339 7,12.995 6.437,14.994 L8,28.984 C8,31.984 6.506,32.001 4.937,32.001 C3.28,32.001 1.999,31.984 1.999,28.984 L3.468,14.993 C3,12.994 0,12.338 0,9.996 L0,1 C0,0.448 0.448,0 1,0 C1.552,0 2,0.447 2,1 L2.003,8.012 C2.012,8.557 2.453,8.995 3,8.995 C3.553,8.995 4,8.547 4,7.995 L4,1 C4,0.448 4.447,0 5,0 C5.552,0 6,0.447 6,1 L6,7.996 C6.009,8.541 6.453,8.996 7,8.996 C7.553,8.996 8,8.548 8,7.996 L8,1 C8,0.448 8.447,0 9,0 C9.553,0 10,0.447 10,1 L10,9.996 L10,9.996 Z" id="Shape" sketch:type="MSShapeGroup"></path>
        </g>
    </g>
</svg>
